X:37
T:Polka piquee
R:polka
C:trad.
A:Massif Central
O:France
Z:S. Piron
M:2/2
L:1/4
Q:1/4=240
K:G
d2A2|A/2B/2A/2F/2 G2|ddA2|A/2B/2A/2F/2 G2:|
|:AcBG|A/2B/2c/2A/2 BG|AcBG|F/2G/2A/2F/2 G2:||
